src/activities/crane/resource/letters/q.svg

<?xml version="1.0" encoding="UTF-8" standalone="no"?>
<svg
   xmlns:dc="http://purl.org/dc/elements/1.1/"
   xmlns:cc="http://creativecommons.org/ns#"
   xmlns:rdf="http://www.w3.org/1999/02/22-rdf-syntax-ns#"
   xmlns:svg="http://www.w3.org/2000/svg"
   xmlns="http://www.w3.org/2000/svg"
   height="64"
   width="64"
   xml:space="preserve"
   enable-background="new 0 0 3508 2480"
   viewBox="0 0 63.999999 63.999999"
   y="0px"
   x="0px"
   id="Layer_1"
   version="1.1"><metadata
     id="metadata4083">
    <rdf:RDF>
      <cc:Work
   rdf:about="">
        <dc:format>image/svg+xml</dc:format>
        <dc:type
   rdf:resource="http://purl.org/dc/dcmitype/StillImage" />
        <dc:title></dc:title>
        <dc:date>2020</dc:date>
        <dc:creator>
          <cc:Agent>
            <dc:title>Timothée Giet</dc:title>
          </cc:Agent>
        </dc:creator>
        <cc:license
   rdf:resource="http://creativecommons.org/licenses/by-sa/4.0/" />
      </cc:Work>
      
    <cc:License
   rdf:about="http://creativecommons.org/licenses/by-sa/4.0/"><cc:permits
     rdf:resource="http://creativecommons.org/ns#Reproduction" /><cc:permits
     rdf:resource="http://creativecommons.org/ns#Distribution" /><cc:requires
     rdf:resource="http://creativecommons.org/ns#Notice" /><cc:requires
     rdf:resource="http://creativecommons.org/ns#Attribution" /><cc:permits
     rdf:resource="http://creativecommons.org/ns#DerivativeWorks" /><cc:requires
     rdf:resource="http://creativecommons.org/ns#ShareAlike" /></cc:License></rdf:RDF>
        </metadata><defs
     id="defs4081" /><g
     transform="matrix(0.95238095,0,0,0.95238095,1.5238096,1.5238096)"
     id="g1234"><path
       style="color:#000000;clip-rule:nonzero;display:inline;overflow:visible;visibility:visible;opacity:1;isolation:auto;mix-blend-mode:normal;color-interpolation:sRGB;color-interpolation-filters:linearRGB;solid-color:#000000;solid-opacity:1;fill:#75d21b;fill-opacity:1;fill-rule:evenodd;stroke:#63a325;stroke-width:1;stroke-linecap:square;stroke-linejoin:miter;stroke-miterlimit:4;stroke-dasharray:none;stroke-dashoffset:0;stroke-opacity:1;marker:none;color-rendering:auto;image-rendering:auto;shape-rendering:auto;text-rendering:auto;enable-background:accumulate"
       d="M 9,1 C 4.568,1 1,4.568 1,9 v 46 c 0,4.432 3.568,8 8,8 h 46 c 4.432,0 8,-3.568 8,-8 V 9 C 63,4.568 59.432,1 55,1 Z m 6,8 h 35 c 2.77,0 5,2.23 5,5 v 35 c 0,2.77 -2.23,5 -5,5 H 15 c -2.77,0 -5,-2.23 -5,-5 V 14 c 0,-2.77 2.23,-5 5,-5 z"
       id="rect4193" /><g
       style="font-style:normal;font-variant:normal;font-weight:normal;font-stretch:normal;font-size:40px;line-height:125%;font-family:Kabel;-inkscape-font-specification:Kabel;letter-spacing:0px;word-spacing:0px;fill:#75d21b;fill-opacity:1;stroke:#63a325;stroke-width:1px;stroke-linecap:butt;stroke-linejoin:miter;stroke-opacity:1"
       id="text4261"><path
         d="m 31.262695,22.058594 q -0.166015,0 -0.322265,0 -2.402344,0 -4.44336,1.083984 -2.197265,1.201172 -3.515625,3.398438 -1.357422,2.236328 -1.396484,5.078125 0.07813,0 0.07813,0 0,0.03906 0,0.03906 0.03906,3.320313 2.275391,5.839844 2.197265,2.519531 5.517578,3.076172 0.283203,0 1.083984,0.166015 0.917969,-0.07813 2.763672,-0.644531 l -4.248047,-3.798828 6.40625,-3.115234 3.28125,2.880859 q 1.357422,-2.080078 1.357422,-4.521484 0,-2.363282 -1.162109,-4.560547 -1.16211,-2.197266 -3.19336,-3.564453 -2.041015,-1.31836 -4.482422,-1.357422 z M 30.100586,14.34375 q 0.195312,0 0.400391,0 4.599609,0 8.642578,1.914062 4.160156,2.001954 6.679687,5.800782 2.519531,3.798828 2.636719,8.916015 0,0.126953 0,0.244141 0,2.802734 -0.917969,5.439453 -1.005859,2.763672 -2.441406,4.804688 L 50.618164,46.375 43.381836,49.65625 39.37793,45.740234 q -3.515625,2.363282 -8.115235,2.519532 -0.24414,0 -0.478515,0 -4.521485,0 -8.408203,-2.041016 -4.072266,-2.158203 -6.47461,-5.996094 -2.402344,-3.798828 -2.519531,-8.408203 0,-0.117187 0,-0.234375 0,-3.359375 1.162109,-6.357422 1.152344,-3.125 3.427735,-5.566406 2.285156,-2.441406 5.410156,-3.876953 3.115234,-1.396484 6.71875,-1.435547 z"
         style="fill:#75d21b;fill-opacity:1;stroke:#63a325;stroke-opacity:1"
         id="path5544" /></g></g></svg>

<?xml version="1.0" encoding="UTF-8" standalone="no"?>
<svg
   xmlns:dc="http://purl.org/dc/elements/1.1/"
   xmlns:cc="http://creativecommons.org/ns#"
   xmlns:rdf="http://www.w3.org/1999/02/22-rdf-syntax-ns#"
   xmlns:svg="http://www.w3.org/2000/svg"
   xmlns="http://www.w3.org/2000/svg"
   xmlns:sodipodi="http://sodipodi.sourceforge.net/DTD/sodipodi-0.dtd"
   xmlns:inkscape="http://www.inkscape.org/namespaces/inkscape"
   version="1.1"
   id="Layer_1"
   x="0px"
   y="0px"
   viewBox="0 0 63.999999 63.999999"
   enable-background="new 0 0 3508 2480"
   xml:space="preserve"
   inkscape:version="0.91 r13725"
   sodipodi:docname="q.svg"
   width="64"
   height="64"><metadata
     id="metadata4083">
    <rdf:RDF>
      <cc:Work
         rdf:about="">
        <dc:format>image/svg+xml</dc:format>
        <dc:type
           rdf:resource="http://purl.org/dc/dcmitype/StillImage" />
        <dc:title></dc:title>
        <dc:date>2016</dc:date>
        <dc:creator>
          <cc:Agent>
            <dc:title>Timothée Giet</dc:title>
          </cc:Agent>
        </dc:creator>
        <cc:license
           rdf:resource="http://creativecommons.org/licenses/by-sa/4.0/" />
      </cc:Work>
      <cc:License
         rdf:about="http://creativecommons.org/licenses/by-sa/4.0/">
        <cc:permits
           rdf:resource="http://creativecommons.org/ns#Reproduction" />
        <cc:permits
           rdf:resource="http://creativecommons.org/ns#Distribution" />
        <cc:requires
           rdf:resource="http://creativecommons.org/ns#Notice" />
        <cc:requires
           rdf:resource="http://creativecommons.org/ns#Attribution" />
        <cc:permits
           rdf:resource="http://creativecommons.org/ns#DerivativeWorks" />
        <cc:requires
           rdf:resource="http://creativecommons.org/ns#ShareAlike" />
      </cc:License>
    </rdf:RDF>
        </metadata><defs
     id="defs4081" /><sodipodi:namedview
     pagecolor="#ffffff"
     bordercolor="#666666"
     borderopacity="1"
     objecttolerance="10"
     gridtolerance="10"
     guidetolerance="10"
     inkscape:pageopacity="0"
     inkscape:pageshadow="2"
     inkscape:window-width="1884"
     inkscape:window-height="1051"
     id="namedview4079"
     showgrid="true"
     showguides="false"
     inkscape:zoom="5.9293045"
     inkscape:cx="10.214275"
     inkscape:cy="21.459119"
     inkscape:window-x="0"
     inkscape:window-y="0"
     inkscape:window-maximized="1"
     inkscape:current-layer="Layer_1"
     fit-margin-top="0"
     fit-margin-left="0"
     fit-margin-right="0"
     fit-margin-bottom="0"><inkscape:grid
       type="xygrid"
       id="grid4195" /></sodipodi:namedview><path
     style="color:#000000;clip-rule:nonzero;display:inline;overflow:visible;visibility:visible;opacity:1;isolation:auto;mix-blend-mode:normal;color-interpolation:sRGB;color-interpolation-filters:linearRGB;solid-color:#000000;solid-opacity:1;fill:#75d21b;fill-opacity:1;fill-rule:evenodd;stroke:#63a325;stroke-width:1;stroke-linecap:square;stroke-linejoin:miter;stroke-miterlimit:4;stroke-dasharray:none;stroke-dashoffset:0;stroke-opacity:1;marker:none;color-rendering:auto;image-rendering:auto;shape-rendering:auto;text-rendering:auto;enable-background:accumulate"
     d="M 9 1 C 4.568 1 1 4.568 1 9 L 1 55 C 1 59.432 4.568 63 9 63 L 55 63 C 59.432 63 63 59.432 63 55 L 63 9 C 63 4.568 59.432 1 55 1 L 9 1 z M 15 9 L 50 9 C 52.77 9 55 11.23 55 14 L 55 49 C 55 51.77 52.77 54 50 54 L 15 54 C 12.23 54 10 51.77 10 49 L 10 14 C 10 11.23 12.23 9 15 9 z "
     id="rect4193" /><g
     style="font-style:normal;font-variant:normal;font-weight:normal;font-stretch:normal;font-size:40px;line-height:125%;font-family:Kabel;-inkscape-font-specification:Kabel;letter-spacing:0px;word-spacing:0px;fill:#75d21b;fill-opacity:1;stroke:#63a325;stroke-width:1px;stroke-linecap:butt;stroke-linejoin:miter;stroke-opacity:1"
     id="text4261"><path
       d="m 31.262695,22.058594 q -0.166015,0 -0.322265,0 -2.402344,0 -4.44336,1.083984 -2.197265,1.201172 -3.515625,3.398438 -1.357422,2.236328 -1.396484,5.078125 0.07813,0 0.07813,0 0,0.03906 0,0.03906 0.03906,3.320313 2.275391,5.839844 2.197265,2.519531 5.517578,3.076172 0.283203,0 1.083984,0.166015 0.917969,-0.07813 2.763672,-0.644531 l -4.248047,-3.798828 6.40625,-3.115234 3.28125,2.880859 q 1.357422,-2.080078 1.357422,-4.521484 0,-2.363282 -1.162109,-4.560547 -1.16211,-2.197266 -3.19336,-3.564453 -2.041015,-1.31836 -4.482422,-1.357422 z M 30.100586,14.34375 q 0.195312,0 0.400391,0 4.599609,0 8.642578,1.914062 4.160156,2.001954 6.679687,5.800782 2.519531,3.798828 2.636719,8.916015 0,0.126953 0,0.244141 0,2.802734 -0.917969,5.439453 -1.005859,2.763672 -2.441406,4.804688 L 50.618164,46.375 43.381836,49.65625 39.37793,45.740234 q -3.515625,2.363282 -8.115235,2.519532 -0.24414,0 -0.478515,0 -4.521485,0 -8.408203,-2.041016 -4.072266,-2.158203 -6.47461,-5.996094 -2.402344,-3.798828 -2.519531,-8.408203 0,-0.117187 0,-0.234375 0,-3.359375 1.162109,-6.357422 1.152344,-3.125 3.427735,-5.566406 2.285156,-2.441406 5.410156,-3.876953 3.115234,-1.396484 6.71875,-1.435547 z"
       style="fill:#75d21b;fill-opacity:1;stroke:#63a325;stroke-opacity:1"
       id="path5544" /></g></svg>
